X:461
T:Gen’l Bonaparte’s March. RH.461
T:Bonapart’s March,aka. RH.461
R:march
S:Rev.R.Harrison’s MS,c1815,Cumbria
N:Alternative title, I just missed off the “Gen’l”
N:bit so you could find it in the index..CGP
O:England
A:Temple Sowerby,Cumbria
Z:vmp.Simon Wilson. Review PJH, 2008.
M:C
L:1/8
Q:2/4=75
K:D
A>A|d2A>A e2A>A|f2fg a2ag|\
f2f>f e2e>e|f>ga>f d2A>A|!
d2A>A e2A>A|f2fg a2ag|\
f2zf e>de>f|d2d>d d2:|!
|:f>f|a2f>f a2f>f|a2gb age>e|\
g2e>e g2e>e|gfaf d2e>e|!
f2a>a bagf|e2e>e e2A>A|\
d2A>A e2A>A|f2fg a2ag|!
f2f2 e>de>f|d2d>d d2zz/b/|\
ag/a/ ba/g/ fe/f/ gf/e/|d2d>d d2:|

